src/items/14-loss.svg

<svg xmlns="http://www.w3.org/2000/svg" viewBox="0 0 48 48" width="96" height="96"><path fill="#F44336" d="M40 34h4v10h-4zm-6-5h4v15h-4zm-6 4h4v11h-4zm-6-8h4v19h-4zm-6 3h4v16h-4zm-6-4h4v20h-4zm-6-5h4v25H4z"/><g fill="#D32F2F"><path d="M34 13.2l-4 4-10-10-5 5-7.6-7.6-2.8 2.8L15 17.8l5-5 10 10 4-4 6.1 6.1 2.8-2.8z"/><path d="M44 26h-9l9-9z"/></g></svg>

<svg xmlns="http://www.w3.org/2000/svg" viewBox="0 0 48 48" width="96px" height="96px"><path fill="#F44336" d="M40 34H44V44H40zM34 29H38V44H34zM28 33H32V44H28zM22 25H26V44H22zM16 28H20V44H16zM10 24H14V44H10zM4 19H8V44H4z"/><g><path fill="#D32F2F" d="M34 13.2L30 17.2 20 7.2 15 12.2 7.4 4.6 4.6 7.4 15 17.8 20 12.8 30 22.8 34 18.8 40.1 24.9 42.9 22.1z"/><path fill="#D32F2F" d="M44 26L35 26 44 17z"/></g></svg>
